assets/sonr-icons/error-network.svg

<svg xmlns="http://www.w3.org/2000/svg" width="24" height="24" fill="none"><path fill="currentColor" d="m14.093 6.135-.681-.919a3 3 0 0 0-5.385 1.371l-.149 1.09-1.001.457A1.501 1.501 0 0 0 7.499 11h8a2.5 2.5 0 1 0-.269-4.986zM7.5 13a3.5 3.5 0 0 1-1.453-6.684 5.002 5.002 0 0 1 8.973-2.291q.237-.024.481-.025a4.5 4.5 0 0 1 4.5 4.5 4.5 4.5 0 0 1-4.5 4.5l-8 .001zm.394 3.448a1 1 0 1 0-1.789-.895l-1 2a1.001 1.001 0 0 0 1.789.895zm8.001 0a1 1 0 1 0-1.789-.895l-1.5 3a1.001 1.001 0 0 0 1.789.895zm2.052 1.658a1 1 0 0 1 .447 1.342l-1 2a1 1 0 0 1-1.789-.895l1-2a1 1 0 0 1 1.342-.447m-6.552-.659a1 1 0 1 0-1.789-.895l-2 4a1.001 1.001 0 0 0 1.789.895z"/></svg>

<svg xmlns="http://www.w3.org/2000/svg" width="24" height="24" fill="none" viewBox="0 0 24 24"><path fill="#000" d="M14.093 6.135L13.412 5.216C12.862 4.474 11.986 4 10.999 4C9.483 4 8.227 5.126 8.027 6.587L7.878 7.677L6.877 8.134C6.355 8.373 5.999 8.897 5.999 9.5C5.999 10.329 6.67 11 7.499 11H15.499C16.88 11 17.999 9.881 17.999 8.5C17.999 7.119 16.88 6 15.499 6C15.408 6 15.318 6.005 15.23 6.014L14.093 6.135ZM7.5 13C5.567 13 4 11.433 4 9.5C4 8.085 4.839 6.867 6.047 6.316C6.381 3.878 8.472 2 11.001 2C12.648 2 14.109 2.797 15.02 4.025C15.178 4.009 15.338 4 15.501 4C17.987 4 20.001 6.014 20.001 8.5C20.001 10.986 17.987 13 15.501 13L7.501 13.001L7.5 13ZM7.894 16.448C8.141 15.954 7.94 15.354 7.447 15.106C6.954 14.858 6.352 15.059 6.105 15.553L5.105 17.553C4.858 18.047 5.059 18.648 5.552 18.895C6.045 19.142 6.647 18.942 6.894 18.448L7.894 16.448ZM15.895 16.448C16.142 15.954 15.941 15.354 15.448 15.106C14.955 14.858 14.354 15.059 14.106 15.553L12.606 18.553C12.359 19.047 12.56 19.648 13.053 19.895C13.546 20.142 14.148 19.942 14.395 19.448L15.895 16.448ZM17.947 18.106C18.441 18.353 18.642 18.953 18.394 19.448L17.394 21.448C17.147 21.942 16.546 22.142 16.052 21.895C15.558 21.648 15.358 21.047 15.605 20.553L16.605 18.553C16.852 18.059 17.452 17.859 17.947 18.106ZM11.395 17.447C11.642 16.953 11.441 16.353 10.948 16.105C10.455 15.857 9.853 16.058 9.606 16.552L7.606 20.552C7.359 21.046 7.56 21.647 8.053 21.894C8.546 22.141 9.148 21.941 9.395 21.447L11.395 17.447Z"/></svg>
